assets/img/Airdrops/noun_Rocket_2691008.svg

<svg width="69" height="50" viewBox="0 0 69 50" fill="none" xmlns="http://www.w3.org/2000/svg">
<path d="M32.8397 50C32.6012 50 32.3627 49.9219 32.1241 49.8438C31.6471 49.5313 31.3291 48.9844 31.4086 48.4375L32.6012 38.1251L31.7266 37.1095L27.7512 42.8126C27.5127 43.2032 27.0357 43.4376 26.5586 43.4376C26.1611 43.4376 25.6046 43.2032 25.366 42.8126C21.9472 37.7345 16.6202 29.922 16.1432 29.3752C15.7457 29.0627 15.7457 28.5939 15.8252 28.1252C15.9842 27.3439 16.0637 27.0314 22.1062 25.1565L21.4702 24.3752L11.0547 22.0315C10.4982 21.8752 10.1006 21.4846 9.94163 21.0159C9.78261 20.469 10.0211 19.9221 10.4187 19.6096L21.7087 10.3909C21.9472 10.1566 22.2652 10.0784 22.5833 10.0784L34.5889 9.68782C34.5889 9.68782 34.5889 9.68782 34.6684 9.68782C39.1208 6.01598 43.8912 2.73475 47.31 1.95351C55.7378 -0.0777257 67.1868 0.000398593 67.5844 0.000398593C68.0614 0.000398593 68.459 0.234771 68.6975 0.547268C68.936 0.859766 69.095 1.32851 68.936 1.79726C68.777 2.42225 64.5631 17.6565 55.5788 24.0627C53.4321 25.6252 50.9674 27.3439 48.5821 29.0627L45.5609 40.1563C45.4814 40.4688 45.3223 40.7032 45.0838 40.9376L33.7938 49.6875C33.4758 49.8438 33.1577 50 32.8397 50ZM35.543 38.4376L34.7479 45.3125L43.1757 38.7501L45.1633 31.4845C40.7109 34.6876 36.8151 37.5001 35.543 38.4376ZM19.4825 28.9064C20.5161 30.3908 22.5833 33.3595 26.6381 39.3751L29.8184 34.8439C29.8979 34.7657 29.8979 34.7657 29.9775 34.6876L24.0939 27.3439C23.9349 27.4221 23.7759 27.5002 23.6169 27.5783C22.1857 28.0471 20.5956 28.5158 19.4825 28.9064ZM24.2529 23.0471L34.4299 35.7032C36.5765 34.1408 41.347 30.6252 46.3559 27.0314C46.515 26.7189 46.833 26.4846 47.2305 26.4064C49.6157 24.6877 52.001 22.969 54.0681 21.4846C56.4534 19.7659 58.5205 17.344 60.1902 14.6878C57.5665 12.7347 54.3067 9.37532 52.0805 3.75037C50.7288 3.98474 49.3772 4.21911 48.1846 4.53161C41.983 5.93785 29.5799 17.6565 24.2529 23.0471ZM14.6326 19.7659L21.8677 21.4065C23.2193 20.0002 26.9562 16.2503 31.2496 12.4222L23.2193 12.7347L14.6326 19.7659ZM55.0222 3.28162C56.9304 7.73471 59.5541 10.5472 61.7008 12.1878C63.768 8.43783 65.1197 4.68786 65.8352 2.5785C63.45 2.65663 59.3156 2.81288 55.0222 3.28162ZM1.43435 49.2969C0.957308 49.2969 0.480265 49.0625 0.241743 48.6719C0.00322167 48.2813 -0.0762858 47.8125 0.0827287 47.3438C0.718787 45.625 4.05809 37.1876 6.99986 35.1564C10.3392 32.8908 14.9506 33.672 17.3358 36.9532C18.4489 38.5157 18.9259 40.4688 18.5284 42.4219C18.2104 44.3751 17.0973 46.0157 15.5071 47.1094C12.5654 49.1406 3.26302 49.2969 1.43435 49.2969ZM11.2137 36.7189C10.3392 36.7189 9.38508 36.9532 8.59 37.5001C7.23838 38.4376 5.09168 42.7344 3.58105 46.4063C7.55641 46.25 12.4859 45.7813 13.8375 44.8438C14.7916 44.1407 15.5071 43.1251 15.6661 41.9532C15.9047 40.7813 15.5866 39.6095 14.9506 38.5938C14.076 37.422 12.6449 36.7189 11.2137 36.7189ZM43.8117 22.8908C43.5732 22.8908 43.3347 22.8908 43.0961 22.8127C41.665 22.6565 40.3929 21.8752 39.4388 20.7815C38.5642 19.6096 38.1667 18.2034 38.3257 16.7971C38.4847 15.3909 39.2798 14.1409 40.3929 13.2815C41.5855 12.4222 43.0166 12.0316 44.4478 12.1878C47.469 12.5784 49.5362 15.3128 49.1387 18.2034C48.9797 19.6096 48.1846 20.8596 47.0715 21.7971C46.1174 22.5002 45.0043 22.8908 43.8117 22.8908ZM43.8117 14.9222C43.2552 14.9222 42.6986 15.0784 42.2216 15.469C41.665 15.8596 41.347 16.4846 41.2675 17.1096C41.188 17.8128 41.347 18.4378 41.7445 18.9846C42.1421 19.5315 42.7781 19.844 43.4142 19.9221C44.0502 20.0002 44.7658 19.844 45.3223 19.4534C45.8789 19.0627 46.1969 18.4378 46.2764 17.8128C46.4354 16.4065 45.4814 15.1565 44.0502 15.0003C43.9707 15.0003 43.8912 14.9222 43.8117 14.9222Z" fill="#5e2ced"/>
</svg>

<?xml version="1.0" encoding="utf-8"?>
<!-- Generator: Adobe Illustrator 24.0.1, SVG Export Plug-In . SVG Version: 6.00 Build 0)  -->
<svg version="1.1" id="Слой_1" xmlns="http://www.w3.org/2000/svg" xmlns:xlink="http://www.w3.org/1999/xlink" x="0px" y="0px"
	 viewBox="0 0 69 50" style="enable-background:new 0 0 69 50;" xml:space="preserve">
<style type="text/css">
	.st0{fill:#FFFFFF;}
</style>
<path class="st0" d="M32.8,50c-0.2,0-0.5-0.1-0.7-0.2c-0.5-0.3-0.8-0.9-0.7-1.4l1.2-10.3l-0.9-1l-4,5.7c-0.2,0.4-0.7,0.6-1.2,0.6
	c-0.4,0-1-0.2-1.2-0.6c-3.4-5.1-8.7-12.9-9.2-13.4c-0.4-0.3-0.4-0.8-0.3-1.2c0.2-0.8,0.2-1.1,6.3-3l-0.6-0.8L11.1,22
	c-0.6-0.2-1-0.5-1.1-1c-0.2-0.5,0.1-1.1,0.5-1.4l11.3-9.2c0.2-0.2,0.6-0.3,0.9-0.3l12-0.4c0,0,0,0,0.1,0c4.5-3.7,9.2-7,12.6-7.7
	c8.4-2,19.9-2,20.3-2c0.5,0,0.9,0.2,1.1,0.5c0.2,0.3,0.4,0.8,0.2,1.2c-0.2,0.6-4.4,15.9-13.4,22.3c-2.1,1.6-4.6,3.3-7,5l-3,11.1
	c-0.1,0.3-0.2,0.5-0.5,0.8l-11.3,8.7C33.5,49.8,33.2,50,32.8,50z M35.5,38.4l-0.8,6.9l8.4-6.6l2-7.3C40.7,34.7,36.8,37.5,35.5,38.4z
	 M19.5,28.9c1,1.5,3.1,4.5,7.2,10.5l3.2-4.5c0.1-0.1,0.1-0.1,0.2-0.2l-5.9-7.3c-0.2,0.1-0.3,0.2-0.5,0.2
	C22.2,28,20.6,28.5,19.5,28.9z M24.3,23l10.2,12.7c2.1-1.6,6.9-5.1,11.9-8.7c0.2-0.3,0.5-0.5,0.9-0.6c2.4-1.7,4.8-3.4,6.8-4.9
	c2.4-1.7,4.5-4.1,6.1-6.8c-2.6-2-5.9-5.3-8.1-10.9c-1.4,0.2-2.7,0.5-3.9,0.8C42,5.9,29.6,17.7,24.3,23z M14.6,19.8l7.2,1.6
	c1.4-1.4,5.1-5.2,9.4-9l-8,0.3L14.6,19.8z M55,3.3c1.9,4.5,4.5,7.3,6.7,8.9c2.1-3.7,3.4-7.5,4.1-9.6C63.5,2.7,59.3,2.8,55,3.3z
	 M1.4,49.3c-0.5,0-1-0.2-1.2-0.6c-0.2-0.4-0.3-0.9-0.2-1.3c0.6-1.7,4-10.2,6.9-12.2c3.3-2.3,8-1.5,10.3,1.8c1.1,1.6,1.6,3.5,1.2,5.5
	c-0.3,2-1.4,3.6-3,4.7C12.6,49.1,3.3,49.3,1.4,49.3z M11.2,36.7c-0.9,0-1.8,0.2-2.6,0.8c-1.4,0.9-3.5,5.2-5,8.9
	c4-0.2,8.9-0.6,10.3-1.6c1-0.7,1.7-1.7,1.8-2.9c0.2-1.2-0.1-2.3-0.7-3.4C14.1,37.4,12.6,36.7,11.2,36.7z M43.8,22.9
	c-0.2,0-0.5,0-0.7-0.1c-1.4-0.2-2.7-0.9-3.7-2c-0.9-1.2-1.3-2.6-1.1-4c0.2-1.4,1-2.7,2.1-3.5c1.2-0.9,2.6-1.2,4.1-1.1
	c3,0.4,5.1,3.1,4.7,6c-0.2,1.4-1,2.7-2.1,3.6C46.1,22.5,45,22.9,43.8,22.9z M43.8,14.9c-0.6,0-1.1,0.2-1.6,0.5c-0.6,0.4-0.9,1-1,1.6
	c-0.1,0.7,0.1,1.3,0.5,1.9c0.4,0.5,1,0.9,1.7,0.9c0.6,0.1,1.4-0.1,1.9-0.5c0.6-0.4,0.9-1,1-1.6c0.2-1.4-0.8-2.7-2.2-2.8
	C44,15,43.9,14.9,43.8,14.9z"/>
</svg>
